64x64/apps/xash3d.svg

<svg height="64" width="64" xmlns="http://www.w3.org/2000/svg"><circle cx="32" cy="33" opacity=".2" r="29"/><path d="m61 32c0 16.016-12.984 29-29 29s-29-12.984-29-29z" fill="#765500"/><path d="m61 32h-58c0-16.016 12.984-29 29-29s29 12.984 29 29z" fill="#624600"/><circle cx="32" cy="33" opacity=".2" r="23"/><circle cx="32" cy="32" fill="#ffbd15" r="23"/><path d="m38 42h7v6h-7zm-.222-24-18.778 30h7.222l18.778-30z" opacity=".1"/><path d="m37.778 17-18.778 30h7.222l18.778-30z" fill="#5c4200"/><path d="m38 41h7v6h-7z" fill="#956b00"/><path d="m26 18-5 2.935 17 27.065 3-6z" opacity=".1"/><path d="m26 17-5 2.935 17 27.065 3-6z" fill="#715100"/><path d="m19 18h7l-3.15 6h-3.85z" opacity=".1"/><path d="m19 17h7l-3.15 6h-3.85z" fill="#956b00"/><g fill="#f4f4f7"><path d="m32 3a29 29 0 0 0 -29 29 29 29 0 0 0 .018.488 29 29 0 0 1 28.982-28.488 29 29 0 0 1 28.975 28.494 29 29 0 0 0 .025-.494 29 29 0 0 0 -29-29z" opacity=".1"/><path d="m32 9a23 23 0 0 0 -23 23 23 23 0 0 0 .018.484 23 23 0 0 1 22.982-22.484 23 23 0 0 1 22.975 22.496 23 23 0 0 0 .025-.496 23 23 0 0 0 -23-23z" opacity=".2"/></g></svg>

<svg xmlns="http://www.w3.org/2000/svg" width="64" height="64"><circle style="opacity:.2" cx="32" cy="33" r="29"/><path style="fill:#765500" d="M61 32c0 16.016-12.984 29-29 29S3 48.016 3 32z"/><path style="fill:#624600" d="M61 32H3C3 15.984 15.984 3 32 3s29 12.984 29 29z"/><circle style="opacity:.2" cx="32" cy="33" r="23"/><circle style="fill:#ffbd15" cx="32" cy="32" r="23"/><path style="opacity:.1" d="M38 42h7v6h-7zM37.778 18 19 48h7.222L45 18z"/><path style="fill:#5c4200" d="M37.778 17 19 47h7.222L45 17z"/><path style="fill:#956b00" d="M38 41h7v6h-7z"/><path style="opacity:.1" d="m26 18-5 2.935L38 48l3-6z"/><path style="fill:#715100" d="m26 17-5 2.935L38 47l3-6z"/><path style="opacity:.1" d="M19 18h7l-3.15 6H19z"/><path style="fill:#956b00" d="M19 17h7l-3.15 6H19z"/><path style="opacity:.1;fill:#f4f4f7" d="M32 3A29 29 0 0 0 3 32a29 29 0 0 0 .018.488A29 29 0 0 1 32 4a29 29 0 0 1 28.975 28.494A29 29 0 0 0 61 32 29 29 0 0 0 32 3z"/><path style="opacity:.2;fill:#f4f4f7" d="M32 9A23 23 0 0 0 9 32a23 23 0 0 0 .018.484A23 23 0 0 1 32 10a23 23 0 0 1 22.975 22.496A23 23 0 0 0 55 32 23 23 0 0 0 32 9z"/></svg>
